static/img/book_icon.svg

<?xml version="1.0" standalone="no"?><!DOCTYPE svg PUBLIC "-//W3C//DTD SVG 1.1//EN"
        "http://www.w3.org/Graphics/SVG/1.1/DTD/svg11.dtd">
<svg t="1590547203620" class="icon" viewBox="0 0 1024 1024" version="1.1" xmlns="http://www.w3.org/2000/svg" p-id="1335"
     xmlns:xlink="http://www.w3.org/1999/xlink" width="30" height="30">
    <defs>
        <style type="text/css"></style>
    </defs>
    <path d="M128 213.333333h128v42.666667H128V213.333333z m0 128h128v42.666667H128V341.333333z m0 128h128v42.666667H128v-42.666667z m0 128h128v42.666667H128v-42.666667z m0 128h128v42.666667H128v-42.666667z m42.666667 170.666667v-42.666667h640.298666c22.997333 0 42.368-19.413333 42.368-43.050666V171.093333A42.666667 42.666667 0 0 0 810.965333 128H170.666667V42.666667h640.298666A128 128 0 0 1 938.666667 171.050667V810.24C938.666667 881.194667 880.938667 938.666667 810.965333 938.666667H170.666667v-42.666667z"
          fill="#569CD6" p-id="1336"></path>
</svg>

<svg class="prefix__prefix__icon" viewBox="0 0 1024 1024" xmlns="http://www.w3.org/2000/svg" width="30" height="30"><defs><style/></defs><path d="M128 213.333h128V256H128v-42.667zm0 128h128V384H128v-42.667zm0 128h128V512H128v-42.667zm0 128h128V640H128v-42.667zm0 128h128V768H128v-42.667zM170.667 896v-42.667h640.298c22.998 0 42.368-19.413 42.368-43.05v-639.19A42.667 42.667 0 00810.965 128H170.667V42.667h640.298A128 128 0 01938.667 171.05v639.19c0 70.955-57.728 128.427-127.702 128.427H170.667V896z" fill="#569CD6"/></svg>
